public/assets/icon_edit_user.svg

<svg width="24" height="24" viewBox="0 0 24 24" fill="none" xmlns="http://www.w3.org/2000/svg">
<path d="M11.9999 22.3747L14.2031 21.8662L12.5083 20.1714L11.9999 22.3747Z" fill="#3F3F3F"/>
<path d="M11.5652 20.9233L11.9297 19.3436C11.9306 19.3397 11.9319 19.336 11.9329 19.3322C11.9347 19.3257 11.9364 19.3192 11.9385 19.3128C11.9405 19.3064 11.9426 19.301 11.9448 19.2952C11.947 19.2893 11.9489 19.2842 11.9513 19.2788C11.954 19.2724 11.9571 19.2661 11.9602 19.26C11.9625 19.2554 11.9649 19.2509 11.9672 19.2465C11.9709 19.2399 11.9747 19.2336 11.9786 19.2273C11.9812 19.2233 11.9837 19.2194 11.9864 19.2155C11.9907 19.2092 11.9952 19.2032 11.9999 19.1972C12.0028 19.1935 12.0056 19.1899 12.0086 19.1863C12.0133 19.1805 12.0186 19.175 12.0238 19.1696C12.0259 19.1674 12.0278 19.1649 12.0299 19.1628L16.9427 14.25C15.5712 11.429 13.0351 9.75 10.1251 9.75C7.99122 9.75 6.01984 10.6634 4.57408 12.3218C3.11804 13.9921 2.29759 16.3202 2.25208 18.8979C3.11289 19.332 6.6475 21 10.1251 21C10.6061 20.9992 11.0868 20.9736 11.5652 20.9233Z" fill="#3F3F3F"/>
<path d="M12.8223 19.4276L18.655 13.5949L20.776 15.7159L14.9433 21.5486L12.8223 19.4276Z" fill="#3F3F3F"/>
<path d="M10.125 9C12.1961 9 13.875 7.32107 13.875 5.25C13.875 3.17893 12.1961 1.5 10.125 1.5C8.05393 1.5 6.375 3.17893 6.375 5.25C6.375 7.32107 8.05393 9 10.125 9Z" fill="#3F3F3F"/>
<path d="M21.75 14.1245C21.7499 13.8278 21.6619 13.5378 21.4971 13.2912C21.3323 13.0445 21.098 12.8523 20.8239 12.7388C20.5498 12.6253 20.2483 12.5956 19.9573 12.6535C19.6664 12.7113 19.3991 12.8542 19.1893 13.064L21.3106 15.1852C21.4504 15.0463 21.5612 14.881 21.6366 14.6989C21.712 14.5168 21.7505 14.3215 21.75 14.1245Z" fill="#3F3F3F"/>
</svg>

<svg width="24" height="24" fill="none" xmlns="http://www.w3.org/2000/svg"><path d="M12 22.375l2.203-.509-1.695-1.695L12 22.375zM11.565 20.923l.365-1.58.003-.01.005-.02.007-.018.006-.016a.294.294 0 01.01-.019l.006-.014a.511.511 0 01.012-.019l.007-.012a.345.345 0 01.014-.018l.009-.01c.004-.007.01-.012.015-.017l.006-.007 4.913-4.913c-1.372-2.821-3.908-4.5-6.818-4.5-2.134 0-4.105.913-5.55 2.572-1.457 1.67-2.277 3.998-2.323 6.576.86.434 4.396 2.102 7.873 2.102.481 0 .962-.026 1.44-.077zM12.822 19.428l5.833-5.833 2.121 2.12-5.833 5.834-2.12-2.121zM10.125 9a3.75 3.75 0 100-7.5 3.75 3.75 0 000 7.5zM21.75 14.124a1.5 1.5 0 00-2.56-1.06l2.12 2.121a1.488 1.488 0 00.44-1.06z" fill="#3F3F3F"/></svg>
